X:146
T:Braes of Auchtertyre, The
M:C|
K:D
D3E F(AA)B| defe dBAd| B/B/B BA B2b2| fdaf "tr"e2d2|\
D3E FAAB| defe dBAd| 
BdAd GdFd| (f/e/)(d/c/) dF "tr"F2D2||\
fgab afda| bgeg fedA| 
B/B/B ba b2{bc'}d'2| fdaf "tr"e2d2|\
fgab afda| bgeg fedA| \
BdAd GdFd| (f/e/)(d/c/) dF "tr"E2D2:|
